X:1
T:Hilsen
T:Hilsen
T:Gruss
T:Edward Grieg
T:Heinrich Heine
T:Original: E=dur
T:6 Songs Op. 48
C:Edward Grieg
Z:Heinrich Heine
%%score 1 { 2 | ( 3 4 ) }
L:1/8
Q:1/4=110
M:2/4
K:Eb
V:1 treble nm="Voice"
V:2 treble nm="Piano"
V:3 bass 
V:4 bass 
V:1
"^Allegretto con moto." z4 | z4 | z4 | z4 |!p! B3 E | F F G A |!<(! (B4!<)! | c4) | d4- | %9
w: ||||Lif- ligt|rø- rer dum øin|Sang,|_|Hjær-|
w: ||||Lei- se|zieht durch mein Ge-|müt|_|Lieb-|
 d =A c3/2 e/ | e2 d2 | z4 |!f! !>!f3 F | F2 F2 | !>!f3 F | F4 |!p! G2 B2 |!<(! B2!<)! e2 | =A4- | %19
w: * tets sag- te|Stræn- ge,||drag kun|du din|For- aars-|gang|o- ver|Vang og|Væn-|
w: * li- ches Ge-|läu- te,||Klin- ge,|klei- nes|Früh- lings-|lied,|Kling hin-|aus ins|Wei|
!>(! A4!>)! | B2 z2 | z4 | z4 |[Q:1/4=105]"_T" z4 |!p! B3 E | F F _G A | B4- | B4 | %28
w: |ge.||||Lad Vi-|o- lens fi- ne|Skær|_|
w: _|te.||||Zieh’ hin-|aus bis an das|Haus,|_|
 _c2!<(! c2!<)! |!>(! (e2!>)! _c) B |{B_c} B4 | A2 z2 |!p! _c2 c2 | A2 _F2 | !>!A3 A | A4 | %36
w: Vej til|Hu- * set|vi-|sem|fin- der|de en|Ro- se|der,|
w: Wo die|Veil- * chen|Sprie-|ssen,|Wenn du|ei- ne|Ro- se|schaust,|
 z2 !>!_c2- | !breath!c!<(! _F _G A!<)! | =A4 | B4 |"^cresc." =B2 c2 | =B2 c2 | !>!^c3 d | d4 | %44
w: hen-|* de skal du|pri-|se,|fin- der|du en|Ro- se|der,|
w: Sag’,|_ ich lass' sie|grü-|ssen|wenn du|ei- ne|Ro- se|schaust,|
 z2!f! e2- | !breath!e E!<(! A!<)! c | f4- |!>(! f4!>)! | e2- e z | z4 | z4 | z4 | z4 | z4 | z4 | %55
w: hen-|* de skal du|pri-||se. _|||||||
w: sag’,|* ich lass' sie|grü-||ssen. _|||||||
 z4 |] %56
w: |
w: |
V:2
!p! (E/G/B/e/ .g)z/[ef]/ | ([ef]2 [db]) z | (E/G/B/e/ .g)z/[ef]/ | ([ef]2 [db]) z | %4
!pp![I:staff +1] (E,/G,/B,/[I:staff -1]E/ .G)z/[EF]/ | ([EF]2 [DB]) z | %6
[I:staff +1] (E,/G,/B,/[I:staff -1]E/ .G) z |[I:staff +1] (E,/G,/[I:staff -1]C/E/ .G) z | %8
[I:staff +1] (G,/B,/[I:staff -1]D/G/ .B)z/[GA]/ | ([G=A]2 [^Fd]) z |"_cresc." (G,/B,/E/G/ .B) z | %11
 (_G,/B,/D/_G/ .B) z |!f! (F,/B,/D/F/ .[Bdf])z/[GBef]/ | (!>![GB-ef-]2 [FBdf]) z | %14
 (F,/B,/D/F/ .[Bdf])z/[GBef]/ | (!>![GB-ef-]2 [FBdf]) z |!p! E2 F2 |!<(! F2!<)! [EG]2 | %18
 [=A,E=A]2 [Ee]2- |!>(! [Ee]2!>)! [Dd]2 |!p! [Dd]2 z3/2 [Bef]/ | ([Bef]2 [Bdb]2) | %22
 ([Bef]2 [Bdb]2) |"^poco rit." ([_cef]2 [Bdb]2) |!p! [E_GB] [EGB]2 [EGB] | [EFA] [EFA]2 [EFA] | %26
 [E_GB] [EGB]2 [EGB] | [E_GB] [EGB]2 [EGB] | [_C_G_c] [CGc]2 [CGc] | [_C_G_c] [CGc]2 [CGc] | %30
 [_C_FB] [CFB]2 [CFB] | [_CEA] [CEA]2 [CEA] |!p! [A,_C_G] [A,CG]2 [A,CG] | %33
 [A,_C_F] [A,CF]2 [A,CF] | [=F,A,E] [F,A,E]2 [F,A,E] | [F,A,=D] [F,A,D]2 [F,A,D] | %36
 [A,_C_G] [A,CG]2 [A,CG] | [_C_FB] [CFB]2 [CFB] | [=F,A,E] [F,A,E]2 [F,A,E] | %39
 [F,A,D] [F,A,D]2 [F,A,D] |"_cresc." [_G,=A,F] [G,A,F]2 [G,A,F] | [_G,=A,E] [G,A,E]2 [G,A,E] | %42
 [_A,_DG] [A,DG]2 [A,DG] | [A,=DF] [A,DF]2 [A,DF] |!f! (A,/C/E/A/ .[ce])z/[A_de]/ | %45
 !>![A-_de-]2 [Ace] z | [CE]4 |!>(! [B,=D]4!>)! | %48
!p![I:staff +1] (E,/G,/B,/[I:staff -1]E/ .G)z/[EF]/ | ((!>![EF]2 [DB])) z | %50
"^decresc." (E/G/B/e/ .g)z/[ef]/ | ([ef]2 [db]) z | (e/g/b/e'/ .g') z | %53
 (e/g/b/e'/ .g') z/!8va(! [e'g'b']/ | ((([e'g'b']4 | [g'b'e''])))!8va)! z z2 |] %56
V:3
 (E,/B,/[I:staff -1]E/G/ .B)[I:staff +1]z/[I:staff -1][EAB]/ |[I:staff +1] x4 | %2
 (E,/B,/[I:staff -1]E/G/ .B)[I:staff +1]z/[I:staff -1][EAB]/ |[I:staff +1] x4 | %4
 (E,,/B,,/E,/G,/ .B,)z/[E,A,B,]/ | [E,-A,B,-]2 [E,F,B,] z | (E,,/B,,/E,/G,/ B,) z | %7
 (E,,/C,/E,/G,/ C) z | (G,,/D,/G,/B,/ .D)z/[G,CD]/ | [G,-CD-]2 [G,=A,D] z | (G,,/D,/G,/B,/ .D) z | %11
 (_G,,/D,/_G,/B,/ .D) z | (F,,/D,/F,/B,/ .D)z/[G,B,D]/ | ((!>![G,B,-D]2 [F,B,D])) z | %14
 (F,,/D,/F,/B,/ .D)z/[G,B,E]/ | ((!>![G,B,-E]2 [F,B,E])) z | [G,B,]2 [F,B,]2 | [F,B,]2 G,2 | %18
 C,2 G,2- | G,2 F,2 | ([B,,F,]/B,/D/F/[K:treble] .B)z/[B,G]/ | (G2 F2) | (G2 F2) | (_A2 F2) | %24
[K:bass] [E,B,] [E,B,]2 [E,B,] | [E,_C] [E,C]2 [E,C] | [E,B,] [E,B,]2 [E,B,] | %27
 [E,B,] [E,B,]2 [E,B,] | [A,,E,] [A,,E,]2 [A,,E,] | [A,,_D,] [A,,D,]2 [A,,D,] | %30
 [A,,=D,] [A,,D,]2 [A,,D,] | [A,,E,] [A,,E,]2 [A,,E,] | [_F,,_C,] [F,,C,]2 [F,,C,] | %33
 [_F,,_C,] [F,,C,]2 [F,,C,] | [B,,,B,,] [B,,,B,,]2 [B,,,B,,] | [B,,,B,,] [B,,,B,,]2 [B,,,B,,] | %36
 [_F,,_C,] [F,,C,]2 [F,,C,] | [_F,,_C,] [F,,C,]2 [F,,C,] | [B,,,B,,] [B,,,B,,]2 [B,,,B,,] | %39
 [B,,,B,,] [B,,,B,,]2 [B,,,B,,] | [B,,,B,,] [B,,,B,,]2 [B,,,B,,] | [B,,,B,,] [B,,,B,,]2 [B,,,B,,] | %42
 [B,,,B,,] [B,,,B,,]2 [B,,,B,,] | [B,,,B,,] [B,,,B,,]2 [B,,,B,,] | ([A,,,A,,]/E,/A,/C/ .A)z/F/ | %45
 (!>!F2 E) z | [E,A,]4 | [=D,A,]4 | (E,,/B,,/E,/G,/ .B,)z/[E,A,B,]/ | !>![E,-A,B,-]2 [E,F,B,] z | %50
 (E,/B,/[I:staff -1]E/G/ .B)[I:staff +1]z/[I:staff -1][EAB]/ |[I:staff +1] x4 | %52
[K:treble] (G/B/e/g/ .b) z | (G/B/e/g/ .b) z | z4 | z4 |] %56
V:4
 x4 |[I:staff -1] [E-AB]2 [EFB][I:staff +1] z | x4 |[I:staff -1] [E-AB-]2 [EFB][I:staff +1] z | %4
 x4 | x4 | x4 | x4 | x4 | x4 | x4 | x4 | x4 | x4 | x4 | x4 | [E,,E,]2 [D,,D,]2 | %17
 [D,,D,]2 [C,,C,]2 | F,,4- | F,,4 | x2[K:treble] x2 | B,4- | B,4- | B,4 |[K:bass] x4 | x4 | x4 | %27
 x4 | x4 | x4 | x4 | x4 | x4 | x4 | x4 | x4 | x4 | x4 | x4 | x4 | x4 | x4 | x4 | x4 | x4 | x4 | %46
 [F,,,F,,]4 | [B,,,B,,]4 | x4 | x4 | x4 |[I:staff -1] [E-AB-]2 [EFB][I:staff +1] z |[K:treble] x4 | %53
 x4 | x4 | x4 |] %56

